svgs/sharp-thin/prescription-bottle.svg

<svg xmlns="http://www.w3.org/2000/svg" viewBox="0 0 384 512"><!--! Font Awesome Pro 6.6.0 by @fontawesome - https://fontawesome.com License - https://fontawesome.com/license (Commercial License) Copyright 2024 Fonticons, Inc. --><path d="M368 16l0 96L16 112l0-96 352 0zM16 0L0 0 0 16l0 96 0 16 16 0 352 0 16 0 0-16 0-96 0-16L368 0 16 0zM32 416l0 80 0 16 16 0 288 0 16 0 0-16 0-336-16 0 0 336L48 496l0-80 104 0 8 0 0-16-8 0L48 400l0-80 104 0 8 0 0-16-8 0L48 304l0-80 104 0 8 0 0-16-8 0L48 208l0-48-16 0 0 48 0 16 0 80 0 16 0 80 0 16z"/></svg>

<svg xmlns="http://www.w3.org/2000/svg" viewBox="0 0 384 512"><!--! Font Awesome Pro 6.5.2 by @fontawesome - https://fontawesome.com License - https://fontawesome.com/license (Commercial License) Copyright 2024 Fonticons, Inc. --><path d="M368 16v96H16V16H368zM16 0H0V16v96 16H16 368h16V112 16 0H368 16zM32 416v80 16H48 336h16V496 160H336V496H48V416H152h8V400h-8H48V320H152h8V304h-8H48V224H152h8V208h-8H48V160H32v48 16 80 16 80 16z"/></svg>
